images/16758563.svg

<?xml version="1.0" encoding="UTF-8"?>
<svg xmlns="http://www.w3.org/2000/svg" xmlns:xlink="http://www.w3.org/1999/xlink" width="300pt" height="300pt" viewBox="0 0 300 300" version="1.1">
<defs>
<g>
<symbol overflow="visible" id="glyph0-0">
<path style="stroke:none;" d="M 0.59375 2.125 L 0.59375 -8.46875 L 6.59375 -8.46875 L 6.59375 2.125 Z M 1.265625 1.453125 L 5.9375 1.453125 L 5.9375 -7.78125 L 1.265625 -7.78125 Z M 1.265625 1.453125 "/>
</symbol>
<symbol overflow="visible" id="glyph0-1">
<path style="stroke:none;" d="M 4.734375 -7.953125 C 3.867188 -7.953125 3.179688 -7.628906 2.671875 -6.984375 C 2.171875 -6.347656 1.921875 -5.472656 1.921875 -4.359375 C 1.921875 -3.265625 2.171875 -2.394531 2.671875 -1.75 C 3.179688 -1.113281 3.867188 -0.796875 4.734375 -0.796875 C 5.585938 -0.796875 6.265625 -1.113281 6.765625 -1.75 C 7.273438 -2.394531 7.53125 -3.265625 7.53125 -4.359375 C 7.53125 -5.472656 7.273438 -6.347656 6.765625 -6.984375 C 6.265625 -7.628906 5.585938 -7.953125 4.734375 -7.953125 Z M 4.734375 -8.90625 C 5.953125 -8.90625 6.925781 -8.492188 7.65625 -7.671875 C 8.394531 -6.847656 8.765625 -5.742188 8.765625 -4.359375 C 8.765625 -2.984375 8.394531 -1.882812 7.65625 -1.0625 C 6.925781 -0.238281 5.953125 0.171875 4.734375 0.171875 C 3.503906 0.171875 2.519531 -0.238281 1.78125 -1.0625 C 1.039062 -1.882812 0.671875 -2.984375 0.671875 -4.359375 C 0.671875 -5.742188 1.039062 -6.847656 1.78125 -7.671875 C 2.519531 -8.492188 3.503906 -8.90625 4.734375 -8.90625 Z M 4.734375 -8.90625 "/>
</symbol>
<symbol overflow="visible" id="glyph0-2">
<path style="stroke:none;" d="M 2.359375 -4.171875 L 2.359375 -0.96875 L 4.265625 -0.96875 C 4.898438 -0.96875 5.367188 -1.097656 5.671875 -1.359375 C 5.984375 -1.628906 6.140625 -2.035156 6.140625 -2.578125 C 6.140625 -3.128906 5.984375 -3.53125 5.671875 -3.78125 C 5.367188 -4.039062 4.898438 -4.171875 4.265625 -4.171875 Z M 2.359375 -7.78125 L 2.359375 -5.140625 L 4.109375 -5.140625 C 4.691406 -5.140625 5.125 -5.25 5.40625 -5.46875 C 5.6875 -5.6875 5.828125 -6.015625 5.828125 -6.453125 C 5.828125 -6.898438 5.6875 -7.234375 5.40625 -7.453125 C 5.125 -7.671875 4.691406 -7.78125 4.109375 -7.78125 Z M 1.171875 -8.75 L 4.203125 -8.75 C 5.109375 -8.75 5.800781 -8.5625 6.28125 -8.1875 C 6.769531 -7.8125 7.015625 -7.28125 7.015625 -6.59375 C 7.015625 -6.050781 6.890625 -5.617188 6.640625 -5.296875 C 6.390625 -4.984375 6.023438 -4.789062 5.546875 -4.71875 C 6.128906 -4.59375 6.582031 -4.332031 6.90625 -3.9375 C 7.226562 -3.539062 7.390625 -3.046875 7.390625 -2.453125 C 7.390625 -1.671875 7.125 -1.066406 6.59375 -0.640625 C 6.0625 -0.210938 5.300781 0 4.3125 0 L 1.171875 0 Z M 1.171875 -8.75 "/>
</symbol>
<symbol overflow="visible" id="glyph0-3">
<path style="stroke:none;" d="M 4.9375 -5.5625 C 4.8125 -5.625 4.675781 -5.671875 4.53125 -5.703125 C 4.394531 -5.742188 4.238281 -5.765625 4.0625 -5.765625 C 3.457031 -5.765625 2.988281 -5.566406 2.65625 -5.171875 C 2.332031 -4.773438 2.171875 -4.203125 2.171875 -3.453125 L 2.171875 0 L 1.09375 0 L 1.09375 -6.5625 L 2.171875 -6.5625 L 2.171875 -5.546875 C 2.398438 -5.941406 2.695312 -6.234375 3.0625 -6.421875 C 3.425781 -6.617188 3.867188 -6.71875 4.390625 -6.71875 C 4.460938 -6.71875 4.539062 -6.710938 4.625 -6.703125 C 4.71875 -6.691406 4.816406 -6.675781 4.921875 -6.65625 Z M 4.9375 -5.5625 "/>
</symbol>
</g>
</defs>
<g id="surface48665">
<rect x="0" y="0" width="300" height="300" style="fill:rgb(100%,100%,100%);fill-opacity:1;stroke:none;"/>
<path style="fill:none;stroke-width:1.2;stroke-linecap:butt;stroke-linejoin:miter;stroke:rgb(0%,0%,0%);stroke-opacity:1;stroke-miterlimit:10;" d="M 251.738281 252.257812 L 221.902344 254.460938 "/>
<path style="fill:none;stroke-width:1.2;stroke-linecap:butt;stroke-linejoin:miter;stroke:rgb(0%,0%,0%);stroke-opacity:1;stroke-miterlimit:10;" d="M 264.75 225.316406 L 251.738281 252.257812 "/>
<path style="fill:none;stroke-width:1.2;stroke-linecap:butt;stroke-linejoin:miter;stroke:rgb(0%,0%,0%);stroke-opacity:1;stroke-miterlimit:10;" d="M 221.902344 254.460938 L 205.074219 229.722656 "/>
<path style="fill:none;stroke-width:1.2;stroke-linecap:butt;stroke-linejoin:miter;stroke:rgb(0%,0%,0%);stroke-opacity:1;stroke-miterlimit:10;" d="M 205.074219 229.722656 L 218.085938 202.78125 "/>
<path style="fill:none;stroke-width:1.2;stroke-linecap:butt;stroke-linejoin:miter;stroke:rgb(0%,0%,0%);stroke-opacity:1;stroke-miterlimit:10;" d="M 212.714844 230.089844 L 223.125 208.535156 "/>
<path style="fill:none;stroke-width:1.2;stroke-linecap:butt;stroke-linejoin:miter;stroke:rgb(0%,0%,0%);stroke-opacity:1;stroke-miterlimit:10;" d="M 218.085938 202.78125 L 247.925781 200.578125 "/>
<path style=" stroke:none;fill-rule:nonzero;fill:rgb(0%,0%,0%);fill-opacity:1;" d="M 201.261719 178.042969 L 213.722656 205.75 L 222.453125 199.8125 Z M 201.261719 178.042969 "/>
<path style="fill:none;stroke-width:1.2;stroke-linecap:butt;stroke-linejoin:miter;stroke:rgb(0%,0%,0%);stroke-opacity:1;stroke-miterlimit:10;" d="M 251.09375 202.109375 L 257.597656 188.636719 "/>
<path style="fill:none;stroke-width:1.2;stroke-linecap:butt;stroke-linejoin:miter;stroke:rgb(100%,0%,0%);stroke-opacity:1;stroke-miterlimit:10;" d="M 257.597656 188.636719 L 264.105469 175.167969 "/>
<path style="fill:none;stroke-width:1.2;stroke-linecap:butt;stroke-linejoin:miter;stroke:rgb(0%,0%,0%);stroke-opacity:1;stroke-miterlimit:10;" d="M 244.753906 199.046875 L 251.261719 185.578125 "/>
<path style="fill:none;stroke-width:1.2;stroke-linecap:butt;stroke-linejoin:miter;stroke:rgb(100%,0%,0%);stroke-opacity:1;stroke-miterlimit:10;" d="M 251.261719 185.578125 L 257.765625 172.105469 "/>
<path style="fill:none;stroke-width:1.2;stroke-linecap:butt;stroke-linejoin:miter;stroke:rgb(0%,0%,0%);stroke-opacity:1;stroke-miterlimit:10;" d="M 247.925781 200.578125 L 264.75 225.316406 "/>
<path style=" stroke:none;fill-rule:nonzero;fill:rgb(100%,100%,100%);fill-opacity:1;" d="M 255.933594 166.636719 L 265.933594 166.636719 L 265.933594 180.636719 L 255.933594 180.636719 Z M 255.933594 166.636719 "/>
<g style="fill:rgb(100%,0%,0%);fill-opacity:1;">
  <use xlink:href="#glyph0-1" x="255.933594" y="177.775391"/>
</g>
<path style="fill:none;stroke-width:1.2;stroke-linecap:butt;stroke-linejoin:miter;stroke:rgb(0%,0%,0%);stroke-opacity:1;stroke-miterlimit:10;" d="M 201.261719 178.042969 L 214.273438 151.101562 "/>
<path style="fill:none;stroke-width:1.2;stroke-linecap:butt;stroke-linejoin:miter;stroke:rgb(0%,0%,0%);stroke-opacity:1;stroke-miterlimit:10;" d="M 201.261719 178.042969 L 186.34375 179.144531 "/>
<path style="fill:none;stroke-width:1.2;stroke-linecap:butt;stroke-linejoin:miter;stroke:rgb(100%,0%,0%);stroke-opacity:1;stroke-miterlimit:10;" d="M 186.34375 179.144531 L 171.425781 180.246094 "/>
<path style="fill:none;stroke-width:1.2;stroke-linecap:butt;stroke-linejoin:miter;stroke:rgb(0%,0%,0%);stroke-opacity:1;stroke-miterlimit:10;" d="M 214.273438 151.101562 L 197.445312 126.363281 "/>
<path style="fill:none;stroke-width:1.2;stroke-linecap:butt;stroke-linejoin:miter;stroke:rgb(0%,0%,0%);stroke-opacity:1;stroke-miterlimit:10;" d="M 197.445312 126.363281 L 210.457031 99.421875 "/>
<path style="fill:none;stroke-width:1.2;stroke-linecap:butt;stroke-linejoin:miter;stroke:rgb(0%,0%,0%);stroke-opacity:1;stroke-miterlimit:10;" d="M 210.457031 99.421875 L 240.292969 97.21875 "/>
<path style="fill:none;stroke-width:1.2;stroke-linecap:butt;stroke-linejoin:miter;stroke:rgb(0%,0%,0%);stroke-opacity:1;stroke-miterlimit:10;" d="M 212.921875 92.179688 L 236.792969 90.417969 "/>
<path style="fill:none;stroke-width:1.2;stroke-linecap:butt;stroke-linejoin:miter;stroke:rgb(0%,0%,0%);stroke-opacity:1;stroke-miterlimit:10;" d="M 193.628906 74.683594 L 210.457031 99.421875 "/>
<path style="fill:none;stroke-width:1.2;stroke-linecap:butt;stroke-linejoin:miter;stroke:rgb(0%,0%,0%);stroke-opacity:1;stroke-miterlimit:10;" d="M 240.292969 97.21875 L 253.304688 70.277344 "/>
<path style="fill:none;stroke-width:1.2;stroke-linecap:butt;stroke-linejoin:miter;stroke:rgb(0%,0%,0%);stroke-opacity:1;stroke-miterlimit:10;" d="M 253.304688 70.277344 L 236.476562 45.539062 "/>
<path style="fill:none;stroke-width:1.2;stroke-linecap:butt;stroke-linejoin:miter;stroke:rgb(0%,0%,0%);stroke-opacity:1;stroke-miterlimit:10;" d="M 245.800781 71.765625 L 232.339844 51.972656 "/>
<path style="fill:none;stroke-width:1.2;stroke-linecap:butt;stroke-linejoin:miter;stroke:rgb(0%,0%,0%);stroke-opacity:1;stroke-miterlimit:10;" d="M 236.476562 45.539062 L 206.640625 47.742188 "/>
<path style="fill:none;stroke-width:1.2;stroke-linecap:butt;stroke-linejoin:miter;stroke:rgb(0%,0%,0%);stroke-opacity:1;stroke-miterlimit:10;" d="M 206.640625 47.742188 L 193.628906 74.683594 "/>
<path style="fill:none;stroke-width:1.2;stroke-linecap:butt;stroke-linejoin:miter;stroke:rgb(0%,0%,0%);stroke-opacity:1;stroke-miterlimit:10;" d="M 211.679688 53.5 L 201.269531 75.050781 "/>
<path style="fill:none;stroke-width:1.2;stroke-linecap:butt;stroke-linejoin:miter;stroke:rgb(100%,0%,0%);stroke-opacity:1;stroke-miterlimit:10;" d="M 171.425781 180.246094 L 163.011719 167.875 "/>
<path style="fill:none;stroke-width:1.2;stroke-linecap:butt;stroke-linejoin:miter;stroke:rgb(0%,0%,0%);stroke-opacity:1;stroke-miterlimit:10;" d="M 163.011719 167.875 L 154.597656 155.507812 "/>
<path style=" stroke:none;fill-rule:nonzero;fill:rgb(100%,100%,100%);fill-opacity:1;" d="M 166.425781 173.246094 L 176.425781 173.246094 L 176.425781 187.246094 L 166.425781 187.246094 Z M 166.425781 173.246094 "/>
<g style="fill:rgb(100%,0%,0%);fill-opacity:1;">
  <use xlink:href="#glyph0-1" x="166.425781" y="184.384766"/>
</g>
<path style="fill:none;stroke-width:1.2;stroke-linecap:butt;stroke-linejoin:miter;stroke:rgb(0%,0%,0%);stroke-opacity:1;stroke-miterlimit:10;" d="M 157.765625 157.039062 L 164.273438 143.566406 "/>
<path style="fill:none;stroke-width:1.2;stroke-linecap:butt;stroke-linejoin:miter;stroke:rgb(100%,0%,0%);stroke-opacity:1;stroke-miterlimit:10;" d="M 164.273438 143.566406 L 170.777344 130.097656 "/>
<path style="fill:none;stroke-width:1.2;stroke-linecap:butt;stroke-linejoin:miter;stroke:rgb(0%,0%,0%);stroke-opacity:1;stroke-miterlimit:10;" d="M 151.429688 153.976562 L 157.933594 140.503906 "/>
<path style="fill:none;stroke-width:1.2;stroke-linecap:butt;stroke-linejoin:miter;stroke:rgb(100%,0%,0%);stroke-opacity:1;stroke-miterlimit:10;" d="M 157.933594 140.503906 L 164.4375 127.035156 "/>
<path style="fill:none;stroke-width:1.2;stroke-linecap:butt;stroke-linejoin:miter;stroke:rgb(0%,0%,0%);stroke-opacity:1;stroke-miterlimit:10;" d="M 154.597656 155.507812 L 124.761719 157.710938 "/>
<path style=" stroke:none;fill-rule:nonzero;fill:rgb(100%,100%,100%);fill-opacity:1;" d="M 162.609375 121.566406 L 172.609375 121.566406 L 172.609375 135.566406 L 162.609375 135.566406 Z M 162.609375 121.566406 "/>
<g style="fill:rgb(100%,0%,0%);fill-opacity:1;">
  <use xlink:href="#glyph0-1" x="162.609375" y="132.705078"/>
</g>
<path style="fill:none;stroke-width:1.2;stroke-linecap:butt;stroke-linejoin:miter;stroke:rgb(0%,0%,0%);stroke-opacity:1;stroke-miterlimit:10;" d="M 124.761719 157.710938 L 107.933594 132.972656 "/>
<path style="fill:none;stroke-width:1.2;stroke-linecap:butt;stroke-linejoin:miter;stroke:rgb(0%,0%,0%);stroke-opacity:1;stroke-miterlimit:10;" d="M 117.257812 159.195312 L 103.796875 139.40625 "/>
<path style="fill:none;stroke-width:1.2;stroke-linecap:butt;stroke-linejoin:miter;stroke:rgb(0%,0%,0%);stroke-opacity:1;stroke-miterlimit:10;" d="M 111.75 184.652344 L 124.761719 157.710938 "/>
<path style="fill:none;stroke-width:1.2;stroke-linecap:butt;stroke-linejoin:miter;stroke:rgb(0%,0%,0%);stroke-opacity:1;stroke-miterlimit:10;" d="M 107.933594 132.972656 L 78.097656 135.175781 "/>
<path style="fill:none;stroke-width:1.2;stroke-linecap:butt;stroke-linejoin:miter;stroke:rgb(0%,0%,0%);stroke-opacity:1;stroke-miterlimit:10;" d="M 78.097656 135.175781 L 65.085938 162.113281 "/>
<path style="fill:none;stroke-width:1.2;stroke-linecap:butt;stroke-linejoin:miter;stroke:rgb(0%,0%,0%);stroke-opacity:1;stroke-miterlimit:10;" d="M 83.136719 140.929688 L 72.726562 162.480469 "/>
<path style="fill:none;stroke-width:1.2;stroke-linecap:butt;stroke-linejoin:miter;stroke:rgb(0%,0%,0%);stroke-opacity:1;stroke-miterlimit:10;" d="M 65.085938 162.113281 L 81.914062 186.851562 "/>
<path style="fill:none;stroke-width:1.2;stroke-linecap:butt;stroke-linejoin:miter;stroke:rgb(0%,0%,0%);stroke-opacity:1;stroke-miterlimit:10;" d="M 65.085938 162.113281 L 50.167969 163.214844 "/>
<path style="fill:none;stroke-width:1.2;stroke-linecap:butt;stroke-linejoin:miter;stroke:rgb(50%,30%,10%);stroke-opacity:1;stroke-miterlimit:10;" d="M 50.167969 163.214844 L 35.25 164.316406 "/>
<path style="fill:none;stroke-width:1.2;stroke-linecap:butt;stroke-linejoin:miter;stroke:rgb(0%,0%,0%);stroke-opacity:1;stroke-miterlimit:10;" d="M 81.914062 186.851562 L 111.75 184.652344 "/>
<path style="fill:none;stroke-width:1.2;stroke-linecap:butt;stroke-linejoin:miter;stroke:rgb(0%,0%,0%);stroke-opacity:1;stroke-miterlimit:10;" d="M 84.378906 179.613281 L 108.246094 177.851562 "/>
<path style=" stroke:none;fill-rule:nonzero;fill:rgb(100%,100%,100%);fill-opacity:1;" d="M 21.25 157.316406 L 35.25 157.316406 L 35.25 171.316406 L 21.25 171.316406 Z M 21.25 157.316406 "/>
<g style="fill:rgb(50%,30%,10%);fill-opacity:1;">
  <use xlink:href="#glyph0-2" x="21.25" y="168.455078"/>
  <use xlink:href="#glyph0-3" x="29.482422" y="168.455078"/>
</g>
</g>
</svg>

<svg xmlns="http://www.w3.org/2000/svg" xmlns:xlink="http://www.w3.org/1999/xlink" width="300pt" height="300pt" viewBox="0 0 300 300"><defs><symbol overflow="visible"><path d="M.594 2.125V-8.47h6V2.126zm.672-.672h4.671V-7.78h-4.67zm0 0"/></symbol><symbol overflow="visible" id="a"><path d="M4.734-7.953c-.867 0-1.554.324-2.062.97-.5.635-.75 1.51-.75 2.624 0 1.094.25 1.965.75 2.61.508.637 1.195.953 2.062.953.852 0 1.532-.316 2.032-.953.507-.645.765-1.516.765-2.61 0-1.113-.257-1.988-.764-2.624-.5-.645-1.18-.97-2.032-.97zm0-.953c1.22 0 2.192.414 2.922 1.234.74.824 1.11 1.93 1.11 3.313 0 1.376-.37 2.477-1.11 3.298C6.926-.24 5.953.17 4.734.17c-1.23 0-2.214-.41-2.953-1.234C1.04-1.882.673-2.984.673-4.36c0-1.382.367-2.488 1.11-3.312.738-.82 1.722-1.234 2.952-1.234zm0 0"/></symbol><symbol overflow="visible" id="b"><path d="M2.36-4.172V-.97h1.906c.632 0 1.1-.128 1.406-.39.312-.27.47-.675.47-1.218 0-.55-.158-.953-.47-1.203-.305-.26-.774-.392-1.406-.392zm0-3.61v2.64h1.75c.58 0 1.015-.108 1.296-.327.282-.218.422-.546.422-.983 0-.445-.14-.78-.422-1-.28-.22-.715-.328-1.297-.328zM1.17-8.75h3.03c.907 0 1.6.188 2.08.563.488.374.734.906.734 1.593 0 .543-.125.977-.375 1.297-.25.313-.617.508-1.093.578.582.126 1.035.388 1.36.782.32.4.484.89.484 1.485 0 .78-.265 1.387-.796 1.812C6.062-.21 5.3 0 4.312 0h-3.14zm0 0"/></symbol><symbol overflow="visible" id="c"><path d="M4.938-5.563c-.125-.062-.262-.11-.407-.14-.135-.04-.292-.063-.468-.063-.605 0-1.074.2-1.406.594-.324.4-.484.97-.484 1.72V0H1.094v-6.563h1.078v1.016c.226-.394.523-.687.89-.875.364-.195.805-.297 1.33-.297.07 0 .147.01.233.017.094.012.19.027.297.047zm0 0"/></symbol></defs><g><path fill="#fff" d="M0 0h300v300H0z"/><path d="M251.738 252.258l-29.836 2.203M264.75 225.316l-13.012 26.942M221.902 254.46l-16.828-24.737M205.074 229.723l13.012-26.942M212.715 230.09l10.41-21.555M218.086 202.78l29.84-2.202" stroke-width="1.2" stroke="#000" stroke-miterlimit="10" fill="none"/><path d="M201.262 178.043l12.46 27.707 8.73-5.938zm0 0"/><path d="M251.094 202.11l6.504-13.473" stroke-width="1.2" stroke="#000" stroke-miterlimit="10" fill="none"/><path d="M257.598 188.637l6.507-13.47" stroke-width="1.2" stroke="#f00" stroke-miterlimit="10" fill="none"/><path d="M244.754 199.047l6.508-13.47" stroke-width="1.2" stroke="#000" stroke-miterlimit="10" fill="none"/><path d="M251.262 185.578l6.504-13.473" stroke-width="1.2" stroke="#f00" stroke-miterlimit="10" fill="none"/><path d="M247.926 200.578l16.824 24.738" stroke-width="1.2" stroke="#000" stroke-miterlimit="10" fill="none"/><path d="M255.934 166.637h10v14h-10zm0 0" fill="#fff"/><use xlink:href="#a" x="255.934" y="177.775" fill="#f00"/><path d="M201.262 178.043l13.01-26.94M201.262 178.043l-14.918 1.102" stroke-width="1.2" stroke="#000" stroke-miterlimit="10" fill="none"/><path d="M186.344 179.145l-14.918 1.1" stroke-width="1.2" stroke="#f00" stroke-miterlimit="10" fill="none"/><path d="M214.273 151.102l-16.828-24.74M197.445 126.363l13.012-26.94M210.457 99.422l29.836-2.203M212.922 92.18l23.87-1.762M193.63 74.684l16.827 24.738M240.293 97.22l13.012-26.943M253.305 70.277L236.477 45.54M245.8 71.766l-13.46-19.793M236.477 45.54L206.64 47.74M206.64 47.742l-13.01 26.942M211.68 53.5l-10.41 21.55" stroke-width="1.2" stroke="#000" stroke-miterlimit="10" fill="none"/><path d="M171.426 180.246l-8.414-12.37" stroke-width="1.2" stroke="#f00" stroke-miterlimit="10" fill="none"/><path d="M163.012 167.875l-8.414-12.367" stroke-width="1.2" stroke="#000" stroke-miterlimit="10" fill="none"/><path d="M166.426 173.246h10v14h-10zm0 0" fill="#fff"/><use xlink:href="#a" x="166.426" y="184.385" fill="#f00"/><path d="M157.766 157.04l6.507-13.474" stroke-width="1.2" stroke="#000" stroke-miterlimit="10" fill="none"/><path d="M164.273 143.566l6.504-13.468" stroke-width="1.2" stroke="#f00" stroke-miterlimit="10" fill="none"/><path d="M151.43 153.977l6.504-13.473" stroke-width="1.2" stroke="#000" stroke-miterlimit="10" fill="none"/><path d="M157.934 140.504l6.504-13.47" stroke-width="1.2" stroke="#f00" stroke-miterlimit="10" fill="none"/><path d="M154.598 155.508l-29.836 2.203" stroke-width="1.2" stroke="#000" stroke-miterlimit="10" fill="none"/><path d="M162.61 121.566h10v14h-10zm0 0" fill="#fff"/><use xlink:href="#a" x="162.609" y="132.705" fill="#f00"/><path d="M124.762 157.71l-16.828-24.737M117.258 159.195l-13.46-19.79M111.75 184.652l13.012-26.94M107.934 132.973l-29.836 2.203M78.098 135.176l-13.012 26.937M83.137 140.93l-10.41 21.55M65.086 162.113l16.828 24.74M65.086 162.113l-14.918 1.102" stroke-width="1.2" stroke="#000" stroke-miterlimit="10" fill="none"/><path d="M50.168 163.215l-14.918 1.1" stroke-width="1.2" stroke="#7f4d1a" stroke-miterlimit="10" fill="none"/><path d="M81.914 186.852l29.836-2.2M84.38 179.613l23.866-1.76" stroke-width="1.2" stroke="#000" stroke-miterlimit="10" fill="none"/><path d="M21.25 157.316h14v14h-14zm0 0" fill="#fff"/><g fill="#7f4d1a"><use xlink:href="#b" x="21.25" y="168.455"/><use xlink:href="#c" x="29.482" y="168.455"/></g></g></svg>
